svg/organization.svg

<svg xmlns="http://www.w3.org/2000/svg" viewBox="0 0 32 32"><path style="text-indent:0;text-align:start;line-height:normal;text-transform:none;block-progression:tb;-inkscape-font-specification:Bitstream Vera Sans" d="M4 3v26h11v-4h2v4h11V3H4zm2 2h20v22h-7v-4h-6v4H6V5zm2 2v2h4V7H8zm6 0v2h4V7h-4zm6 0v2h4V7h-4zM8 11v2h4v-2H8zm6 0v2h4v-2h-4zm6 0v2h4v-2h-4zM8 15v2h4v-2H8zm6 0v2h4v-2h-4zm6 0v2h4v-2h-4zM8 19v2h4v-2H8zm6 0v2h4v-2h-4zm6 0v2h4v-2h-4zM8 23v2h4v-2H8zm12 0v2h4v-2h-4z"/></svg>

<svg xmlns="http://www.w3.org/2000/svg" viewBox="0 0 32 32" enable-background="new 0 0 32 32"><path d="M 4 3 L 4 4 L 4 28 L 4 29 L 5 29 L 14 29 L 15 29 L 15 28 L 15 25 L 17 25 L 17 28 L 17 29 L 18 29 L 27 29 L 28 29 L 28 28 L 28 4 L 28 3 L 27 3 L 5 3 L 4 3 z M 6 5 L 26 5 L 26 27 L 19 27 L 19 24 L 19 23 L 18 23 L 14 23 L 13 23 L 13 24 L 13 27 L 6 27 L 6 5 z M 8 7 L 8 9 L 12 9 L 12 7 L 8 7 z M 14 7 L 14 9 L 18 9 L 18 7 L 14 7 z M 20 7 L 20 9 L 24 9 L 24 7 L 20 7 z M 8 11 L 8 13 L 12 13 L 12 11 L 8 11 z M 14 11 L 14 13 L 18 13 L 18 11 L 14 11 z M 20 11 L 20 13 L 24 13 L 24 11 L 20 11 z M 8 15 L 8 17 L 12 17 L 12 15 L 8 15 z M 14 15 L 14 17 L 18 17 L 18 15 L 14 15 z M 20 15 L 20 17 L 24 17 L 24 15 L 20 15 z M 8 19 L 8 21 L 12 21 L 12 19 L 8 19 z M 14 19 L 14 21 L 18 21 L 18 19 L 14 19 z M 20 19 L 20 21 L 24 21 L 24 19 L 20 19 z M 8 23 L 8 25 L 12 25 L 12 23 L 8 23 z M 20 23 L 20 25 L 24 25 L 24 23 L 20 23 z"/></svg>
